symbols/web/lunch_dining/materialsymbolssharp/lunch_dining_wght500gradN25fill1_48px.svg

<svg xmlns="http://www.w3.org/2000/svg" height="48" width="48"><path d="M4.05 20.1v-2.2q0-5 5.225-8.475Q14.5 5.95 24 5.95t14.725 3.475Q43.95 12.9 43.95 17.9v2.2Zm0 8.75v-3.1q1.6 0 2.85-1.1t3.9-1.1q2.65 0 3.575 1.1.925 1.1 2.925 1.1 2 0 3.025-1.1T24 23.55q2.7 0 3.7 1.1t3 1.1q2 0 2.925-1.1.925-1.1 3.575-1.1 2.65 0 3.875 1.1t2.875 1.1v3.1q-2.65 0-3.7-1.1-1.05-1.1-3.05-1.1-2 0-2.9 1.1-.9 1.1-3.6 1.1-2.65 0-3.675-1.1T24 26.65q-2 0-3 1.1t-3.7 1.1q-2.65 0-3.575-1.1-.925-1.1-2.925-1.1-2 0-3.05 1.1-1.05 1.1-3.7 1.1Zm0 13.4V32.4h39.9v9.85Z"/></svg>

<svg xmlns="http://www.w3.org/2000/svg" height="48" width="48"><path d="M4.05 20.1V17.9Q4.05 12.9 9.275 9.425Q14.5 5.95 24 5.95Q33.5 5.95 38.725 9.425Q43.95 12.9 43.95 17.9V20.1ZM4.05 28.85V25.75Q5.65 25.75 6.9 24.65Q8.15 23.55 10.8 23.55Q13.45 23.55 14.375 24.65Q15.3 25.75 17.3 25.75Q19.3 25.75 20.325 24.65Q21.35 23.55 24 23.55Q26.7 23.55 27.7 24.65Q28.7 25.75 30.7 25.75Q32.7 25.75 33.625 24.65Q34.55 23.55 37.2 23.55Q39.85 23.55 41.075 24.65Q42.3 25.75 43.95 25.75V28.85Q41.3 28.85 40.25 27.75Q39.2 26.65 37.2 26.65Q35.2 26.65 34.3 27.75Q33.4 28.85 30.7 28.85Q28.05 28.85 27.025 27.75Q26 26.65 24 26.65Q22 26.65 21 27.75Q20 28.85 17.3 28.85Q14.65 28.85 13.725 27.75Q12.8 26.65 10.8 26.65Q8.8 26.65 7.75 27.75Q6.7 28.85 4.05 28.85ZM4.05 42.25V32.4H43.95V42.25Z"/></svg>
